!!!!SEGMENT: pl-sa--l-1636--027_anonim--keyboard-piece.krn
!!!cenid: 17xx:734
!!!COM: Anonim
!!!COM-rismid: pe30004985
!!!CDT:
!!!CNT:
!!!OTL: [Keyboard piece]
!!!PDT:
!!!AGN: Secular
!!!SMS-siglum: PL-SA
!!!SMS-shelfmark: L 1636
!!!SMS-shelfwork: 027 W
!!!SMS-variant:
!!!SMS-altvar:
!!!NIFC-rismid: 1001076496
!!!URL-scan: http://repozytorium.nifc.pl/skany/pl-sa-nut--l1636
!!!ONB-nifc: 8r, skan 0011, s. 7-8
!!!AIN: 1 empty
!!!key:
**kern	**kern
*part1	*part1
*staff2	*staff1
*Iempty	*Iempty
*I"[Keyboard]	*
*I'keyb	*
*clefC4	*clefC1
*k[]	*k[]
*G:	*G:
*M2/2	*M2/2
*met(c|)	*met(c|)
=1	=1
*	*^
*^	*	*
!	!	!LO:TX:a:t=P:problem=mixed beam	!
1rd	1d	8e/L	1dd
.	.	16b\L	.
.	.	16a\JJ	.
.	.	8g/L	.
.	.	8a/J	.
.	.	8b\L	.
.	.	8ee\J	.
.	.	16cc\LL	.
.	.	16b\	.
.	.	16cc\	.
.	.	16dd\JJ	.
*v	*v	*	*
=2	=2	=2
*	*	*2\right
2r	16ee\LL	4ryy
.	16b\	.
.	16cc\	.
.	16a\JJ	.
!	!LO:N:vis=2	!LO:N:vis=2
.	2.b/	2.g\
8r	.	.
16e\LL	.	.
16d\JJ	.	.
8c\L	.	.
8B\J	.	.
*	*v	*v
=3	=3
8A\L	8cc\L
8c\	8ee\J
8B\	16dd\LL
.	16ee\
8A\J	16cc\
.	16dd\JJ
8G#X/L	8b\L
8A/J	8cc\J
8G#X/L	16b\LL
.	16cc\
8F#X/J	16a\
.	16b\JJ
*clefF4	*
=4	=4
4E\	8b\L
.	8a\J
4D/	16cc\LL
.	16b\
.	16cc\
.	16dd\JJ
4C/	16ee\LL
.	16dd\
.	16ee\
.	16ff\JJ
4D/	16gg\LL
.	16ff\
.	16gg\
.	16aa\JJ
=5	=5
*	*^
4E\	8gg/L	8ee\L
.	8gg/J	8ee\J
4F\	8ff/L	8dd\L
.	8ee/J	8cc\J
16G\LL	2dd/	2b\
16D\	.	.
16E\	.	.
16F\JJ	.	.
16G\LL	.	.
16F\	.	.
16E\	.	.
16D\JJ	.	.
!!LO:LB:g=original
=6	=6	=6
*^	*	*
*	*2\right	*	*
2G/	2C\	16ee/LL	16cc\LL
.	.	16gg/	16ee\
.	.	16ee/	16cc\
.	.	16ff/JJ	16dd\JJ
.	.	16gg/LL	16ee\LL
.	.	16ff/	16dd\
.	.	16ee/	16cc\
.	.	16dd/JJ	16b\JJ
16F\LL	2ryy	2cc/	2a\
16A\	.	.	.
16F\	.	.	.
16G\JJ	.	.	.
16A\LL	.	.	.
16G\	.	.	.
16F\	.	.	.
16E\JJ	.	.	.
*v	*v	*	*
*	*clefG2	*
=7	=7	=7
2D\	16ff/LL	16dd\LL
.	16aa/	16ff\
.	16ff/	16dd\
.	16aa/JJ	16ff\JJ
.	16ff/LL	16dd\LL
.	16ee/	16cc\
.	16dd/	16b\
.	16cc/JJ	16a\JJ
16E\LL	2b/	2g#X\
16BB\	.	.
16C\	.	.
16D\JJ	.	.
16E\LL	.	.
16D\	.	.
16C\	.	.
16BB\JJ	.	.
=8	=8	=8
*	*clefC1	*
2AA/	16cc/LL	16a\LL
.	16ee/	16cc\
.	16cc/	16a\
.	16dd/JJ	16b\JJ
.	16ee/LL	16cc\LL
.	16dd/	16b\
.	16cc/	16a\
.	16b/JJ	16g\JJ
16D/LL	2a/	2f#X\
16AA/	.	.
16BB/	.	.
16C/JJ	.	.
16D/LL	.	.
16C/	.	.
16BB/	.	.
16AA/JJ	.	.
=9	=9	=9
2GG/	16b/LL	16g\LL
.	16dd/	16b\
.	16b/	16g\
.	16cc/JJ	16a\JJ
.	16dd/LL	16b\LL
.	16cc/	16a\
.	16b/	16g\
.	16a/JJ	16f\JJ
8C/L	4g/	4e\
8BB/J	.	.
4AA/	8a/L	4ryy
.	8g/J	.
=10	=10	=10
2BB/	8f/L	8d\L
.	8g/J	8e\J
.	8f/L	4d\
.	8e/J	.
2E\	2g/	2d 2B/
*	*v	*v
==	==
*-	*-
!!!system-decoration: s1,s2
!!!EED: Antoni Szymański
!!!EST: 2020-12-07
!!!ENC: Tomasz Grochalski
!!!END: 2020-06-11
